X: 10481
T: Donnellan's Smokey Chimney
R: reel
M: 4/4
K: Eminor
BE~E2 FAed|B2AF DFAF|BE~E2 FAed|B2AF FE~E2|
BE~E2 FAed|B2AF DFAF|BE~E2 FAed|B2AF FE~E2||
B2ed effe|defa bafd|B2eB fBeB|dfed BAFA|
~B3d effe|defa bafb|bafe edBA|DFAF dFAF||

